packages/ui-icons/src/Service-logos/24/Skype.svg

<svg viewBox="0 0 32 32" fill="none" xmlns="http://www.w3.org/2000/svg">
<path d="M28 16C28 22.6274 22.6274 28 16 28C9.37258 28 4 22.6274 4 16C4 9.37258 9.37258 4 16 4C22.6274 4 28 9.37258 28 16Z" fill="white"/>
<path fill-rule="evenodd" clip-rule="evenodd" d="M3.5 16C3.5 9.09644 9.09644 3.5 16 3.5C22.9036 3.5 28.5 9.09644 28.5 16C28.5 22.9036 22.9036 28.5 16 28.5C9.09644 28.5 3.5 22.9036 3.5 16ZM16 4.5C9.64873 4.5 4.5 9.64873 4.5 16C4.5 22.3513 9.64873 27.5 16 27.5C22.3513 27.5 27.5 22.3513 27.5 16C27.5 9.64873 22.3513 4.5 16 4.5Z" fill="#D8D8D8"/>
<path d="M16 21C18.7614 21 21 18.7614 21 16C21 13.2386 18.7614 11 16 11C13.2386 11 11 13.2386 11 16C11 18.7614 13.2386 21 16 21Z" fill="white"/>
<path fill-rule="evenodd" clip-rule="evenodd" d="M23 19.1821C23 18.5727 22.8551 17.9974 22.5975 17.4862C22.6987 17.0301 22.7514 16.5579 22.7514 16.0726C22.7514 12.4373 19.7626 9.48931 16.0741 9.48931C15.6856 9.48931 15.3044 9.52258 14.9324 9.58587C14.3356 9.21504 13.6294 9 12.8729 9C10.7335 9 9 10.7089 9 12.8187C9 13.523 9.19426 14.1819 9.53175 14.75C9.44367 15.1768 9.39675 15.6198 9.39675 16.0726C9.39675 19.7096 12.3864 22.6568 16.0741 22.6568C16.4922 22.6568 16.9005 22.6186 17.2973 22.5464C17.843 22.8353 18.4653 23 19.1279 23C21.2665 23 23 21.2903 23 19.1821ZM19.5 17.5134C19.5 17.9871 19.3587 18.4189 19.0819 18.7968C18.8059 19.174 18.3981 19.4718 17.8681 19.6831C17.3448 19.8929 16.7177 20 16.0029 20C15.1454 20 14.4263 19.8546 13.8647 19.5675C13.4635 19.359 13.133 19.0768 12.882 18.7266C12.6281 18.3749 12.5 18.0253 12.5 17.6871C12.5 17.4773 12.5839 17.2943 12.7488 17.1447C12.9122 16.9958 13.122 16.9214 13.3722 16.9214C13.5769 16.9214 13.7543 16.9802 13.8978 17.0972C14.0354 17.21 14.1532 17.3766 14.2482 17.59C14.3542 17.824 14.469 18.0211 14.5904 18.175C14.7082 18.3253 14.8768 18.4508 15.0917 18.5493C15.3081 18.6472 15.6003 18.6982 15.9588 18.6982C16.4527 18.6982 16.8575 18.5961 17.1615 18.3962C17.4596 18.2012 17.6039 17.9658 17.6039 17.6779C17.6039 17.4517 17.5281 17.2731 17.3735 17.1327C17.2101 16.9866 16.9959 16.8732 16.7361 16.7938C16.4645 16.7129 16.0964 16.6243 15.6408 16.5321C15.0203 16.4045 14.494 16.2535 14.0759 16.0812C13.6475 15.9061 13.3023 15.6629 13.0498 15.3587C12.7937 15.0488 12.6634 14.661 12.6634 14.2051C12.6634 13.7712 12.7996 13.3791 13.069 13.0416C13.3354 12.7062 13.7256 12.4439 14.2283 12.2659C14.7237 12.0893 15.3125 12 15.9801 12C16.513 12 16.9819 12.0596 17.3735 12.1773C17.7673 12.295 18.0985 12.4538 18.3591 12.6502C18.6219 12.8487 18.8177 13.0593 18.9399 13.2791C19.0635 13.501 19.1268 13.7215 19.1268 13.9349C19.1268 14.1406 19.0444 14.3277 18.8817 14.4901C18.7183 14.6546 18.5115 14.7376 18.2686 14.7376C18.0477 14.7376 17.874 14.6851 17.7548 14.583C17.6429 14.4873 17.5266 14.3384 17.3978 14.1257C17.2491 13.8534 17.0688 13.6386 16.8619 13.4868C16.661 13.3394 16.3261 13.2656 15.8646 13.2656C15.4376 13.2656 15.0887 13.3479 14.8304 13.5117C14.5816 13.6684 14.4601 13.8492 14.4601 14.0633C14.4601 14.1937 14.4992 14.3036 14.5801 14.3972C14.664 14.4979 14.784 14.5844 14.9356 14.6582C15.0924 14.734 15.2544 14.795 15.4163 14.8375C15.5819 14.8822 15.8601 14.9482 16.2422 15.0332C16.7258 15.1325 17.1696 15.2452 17.5619 15.3665C17.9601 15.4884 18.3032 15.6387 18.5843 15.8153C18.8699 15.9947 19.0959 16.2244 19.2571 16.4995C19.4183 16.7767 19.5 17.1171 19.5 17.5134Z" fill="#00AEF3"/>
</svg>

<svg viewBox="0 0 32 32" fill="none" xmlns="http://www.w3.org/2000/svg"><path d="M28 16c0 6.627-5.373 12-12 12S4 22.627 4 16 9.373 4 16 4s12 5.373 12 12Z" fill="#fff"/><path fill-rule="evenodd" clip-rule="evenodd" d="M3.5 16C3.5 9.096 9.096 3.5 16 3.5S28.5 9.096 28.5 16 22.904 28.5 16 28.5 3.5 22.904 3.5 16ZM16 4.5C9.649 4.5 4.5 9.649 4.5 16S9.649 27.5 16 27.5 27.5 22.351 27.5 16 22.351 4.5 16 4.5Z" fill="#D8D8D8"/><path d="M16 21a5 5 0 1 0 0-10 5 5 0 0 0 0 10Z" fill="#fff"/><path fill-rule="evenodd" clip-rule="evenodd" d="M23 19.182c0-.61-.145-1.185-.402-1.696.1-.456.153-.928.153-1.413 0-3.636-2.988-6.584-6.677-6.584a6.8 6.8 0 0 0-1.142.097A3.89 3.89 0 0 0 12.872 9C10.734 9 9 10.709 9 12.819c0 .704.194 1.363.532 1.931-.088.427-.135.87-.135 1.323 0 3.637 2.99 6.584 6.677 6.584.418 0 .826-.038 1.223-.11a3.9 3.9 0 0 0 1.83.453C21.268 23 23 21.29 23 19.182Zm-3.5-1.669c0 .474-.141.906-.418 1.284-.276.377-.684.675-1.214.886-.523.21-1.15.317-1.865.317-.858 0-1.577-.145-2.138-.433a2.754 2.754 0 0 1-.983-.84c-.254-.352-.382-.702-.382-1.04 0-.21.084-.393.249-.542a.893.893 0 0 1 .623-.224.81.81 0 0 1 .526.176c.137.113.255.28.35.493.106.234.221.431.342.585.118.15.287.276.502.374.216.098.508.15.867.15.494 0 .899-.103 1.203-.303.298-.195.442-.43.442-.718a.697.697 0 0 0-.23-.545 1.682 1.682 0 0 0-.638-.34c-.271-.08-.64-.169-1.095-.26a8.887 8.887 0 0 1-1.565-.452c-.428-.175-.774-.418-1.026-.722-.256-.31-.387-.698-.387-1.154 0-.434.137-.826.406-1.163.266-.336.657-.598 1.16-.776.495-.177 1.084-.266 1.751-.266.533 0 1.002.06 1.393.177.394.118.726.277.986.473.263.199.459.41.58.63.125.221.188.442.188.655a.769.769 0 0 1-.245.555.833.833 0 0 1-.613.248c-.221 0-.395-.053-.514-.155a1.89 1.89 0 0 1-.357-.457 1.918 1.918 0 0 0-.536-.64c-.201-.147-.536-.22-.997-.22-.427 0-.776.082-1.035.246-.248.156-.37.337-.37.551 0 .13.04.24.12.334.084.1.204.187.356.261.156.076.318.137.48.18.166.044.444.11.826.195.484.1.928.212 1.32.334.398.121.741.272 1.022.448.286.18.512.41.673.685.161.277.243.617.243 1.013Z" fill="#00AEF3"/></svg>
